icons/arrows-bar-in-horizontal.svg

<svg xmlns="http://www.w3.org/2000/svg" width="24" height="24" viewBox="0 0 24 24">
  <path d="M12,15 L12.019,15.001 L12.029,15.001 L12.081,15.003 L12.1489612,15.0110193 L12.1489612,15.0110193 C12.165949,15.0136281 12.1833753,15.0167022 12.2007258,15.0202401 C12.2227461,15.0246398 12.2444365,15.0298336 12.2658396,15.035721 C12.2814633,15.0400977 12.2968513,15.0447287 12.3121425,15.0497381 C12.3317977,15.0561225 12.3515792,15.0633157 12.3710585,15.071104 L12.4232215,15.0936734 L12.4232215,15.0936734 C12.4438914,15.1033766 12.4642939,15.1137939 12.484277,15.1248758 C12.4963944,15.1314988 12.5086131,15.1386069 12.5207088,15.1459955 C12.546275,15.1617187 12.5711307,15.1784901 12.5951593,15.1963135 C12.6012086,15.2007179 12.6070733,15.2051745 12.6128994,15.2097046 C12.6196628,15.2150711 12.6225624,15.2173721 12.625449,15.2196888 L12.7071068,15.2928932 L15.7071068,18.2928932 C16.0976311,18.6834175 16.0976311,19.3165825 15.7071068,19.7071068 C15.3466228,20.0675907 14.7793918,20.0953203 14.3871006,19.7902954 L14.2928932,19.7071068 L13,18.415 L13,22 C13,22.5522847 12.5522847,23 12,23 C11.4871642,23 11.0644928,22.6139598 11.0067277,22.1166211 L11,22 L11,18.415 L9.70710678,19.7071068 C9.31658249,20.0976311 8.68341751,20.0976311 8.29289322,19.7071068 C7.93240926,19.3466228 7.90467972,18.7793918 8.20970461,18.3871006 L8.29289322,18.2928932 L11.2928932,15.2928932 L11.37,15.224 L11.38,15.215 L11.4046934,15.1963346 L11.4046934,15.1963346 C11.4288693,15.1784901 11.453725,15.1617187 11.4793398,15.1460674 L11.5159379,15.1246712 L11.5159379,15.1246712 C11.5357061,15.1137939 11.5561086,15.1033766 11.5769009,15.0936538 L11.628664,15.0712255 L11.628664,15.0712255 C11.6484208,15.0633157 11.6682023,15.0561225 11.6882636,15.0495467 C11.7031487,15.0447287 11.7185367,15.0400977 11.734007,15.0358451 C11.7555635,15.0298336 11.7772539,15.0246398 11.7992059,15.0201652 C11.8166247,15.0167022 11.834051,15.0136281 11.8515331,15.0110178 L11.909968,15.003998 L11.909968,15.003998 C11.9208131,15.00307 11.9308872,15.0023256 11.9409686,15.0017331 L11.980824,15.0001802 L12,15 L12,15 Z M3,11 L21,11 C21.5522847,11 22,11.4477153 22,12 C22,12.5128358 21.6139598,12.9355072 21.1166211,12.9932723 L21,13 L3,13 C2.44771525,13 2,12.5522847 2,12 C2,11.4871642 2.38604019,11.0644928 2.88337887,11.0067277 L3,11 Z M12,1 C12.5522847,1 13,1.44771525 13,2 L13,2 L13,5.585 L14.2928932,4.29289322 L14.3871006,4.20970461 C14.7793918,3.90467972 15.3466228,3.93240926 15.7071068,4.29289322 C16.0976311,4.68341751 16.0976311,5.31658249 15.7071068,5.70710678 L15.7071068,5.70710678 L12.7071068,8.70710678 L12.625449,8.78031123 C12.6225624,8.7826279 12.6196628,8.78492887 12.6128994,8.79029539 C12.6070733,8.79482546 12.6012086,8.79928214 12.5951593,8.80368649 C12.5711307,8.82150991 12.546275,8.8382813 12.5207088,8.85400455 C12.5086131,8.86139308 12.4963944,8.86850117 12.484277,8.87512423 C12.4642939,8.88620608 12.4438914,8.89662336 12.4232215,8.90632664 L12.4232215,8.90632664 L12.3710585,8.92889604 C12.3515792,8.93668426 12.3317977,8.94387751 12.3121425,8.95026191 C12.2968513,8.95527128 12.2814633,8.95990227 12.2658396,8.96427903 C12.2444365,8.97016637 12.2227461,8.9753602 12.2007258,8.97975993 C12.1833753,8.98329783 12.165949,8.98637192 12.1489612,8.98898066 L12.1489612,8.98898066 L12.08,8.996 L12.026,8.999 L12.019,8.999 L12,9 C11.9935938,9 11.9872016,8.99993976 11.980824,8.99981982 L11.980824,8.99981982 L11.9409686,8.9982669 C11.9308872,8.99767439 11.9208131,8.99692996 11.909968,8.99600202 L11.909968,8.99600202 L11.8515331,8.9889822 C11.834051,8.98637192 11.8166247,8.98329783 11.7992059,8.97983485 C11.7772539,8.9753602 11.7555635,8.97016637 11.734007,8.96415486 C11.7185367,8.95990227 11.7031487,8.95527128 11.6882636,8.95045332 C11.6682023,8.94387751 11.6484208,8.93668426 11.628664,8.92877451 L11.628664,8.92877451 L11.5769009,8.90634622 C11.5561086,8.89662336 11.5357061,8.88620608 11.5159379,8.87532883 L11.5159379,8.87532883 L11.4793398,8.85393257 C11.453725,8.8382813 11.4288693,8.82150991 11.4046934,8.80366542 L11.4046934,8.80366542 L11.38,8.784 L11.3832499,8.78721404 L11.378,8.783 L11.374551,8.78031123 L11.359,8.767 L11.347434,8.75779198 L11.347434,8.75779198 L11.2928932,8.70710678 L8.29289322,5.70710678 L8.20970461,5.61289944 C7.90467972,5.22060824 7.93240926,4.65337718 8.29289322,4.29289322 C8.68341751,3.90236893 9.31658249,3.90236893 9.70710678,4.29289322 L9.70710678,4.29289322 L11,5.585 L11,2 L11.0067277,1.88337887 C11.0644928,1.38604019 11.4871642,1 12,1 Z"/>
</svg>

<svg xmlns="http://www.w3.org/2000/svg" viewBox="0 0 24 24">
  <path d="M12 15h.08l.07.01a1.08 1.08 0 0 1 .22.06l.05.02a1.02 1.02 0 0 1 .2.13l.09.07 3 3a1 1 0 0 1-1.32 1.5l-.1-.08L13 18.4V22a1 1 0 0 1-2 .12V18.4l-1.3 1.3a1 1 0 0 1-1.49-1.32l.08-.1 3-3 .08-.07h.01l.02-.02.08-.05.04-.03.06-.03.05-.02a.99.99 0 0 1 .22-.06h.09l.04-.01H12zm-9-4h18a1 1 0 0 1 .12 2H3a1 1 0 0 1-.12-2H3zm9-10a1 1 0 0 1 1 1v3.58l1.3-1.29.09-.08a1 1 0 0 1 1.32 1.5l-3 3-.08.07a3.01 3.01 0 0 1-.15.1l-.06.03-.05.02a.95.95 0 0 1-.22.06h-.13L12 9h-.09l-.06-.01a1.1 1.1 0 0 1-.22-.06l-.05-.02a1.04 1.04 0 0 1-.06-.03l-.04-.03a1.03 1.03 0 0 1-.08-.05l-.02-.02-.02-.01-.01-.01-.06-.05-3-3-.08-.1a1 1 0 0 1 1.5-1.32L11 5.6V1.88A1 1 0 0 1 12 1z"/>
</svg>
